fn circle n //args not yet implemented
  repeat 120
    move 2
    turn-left 3
  end
endfn

// comments are ignored
pen down
move 10

call circle

repeat 36 // cant step this yet
  pen down
  call circle
  pen up
  move 10
  turn-right 10
end
