fn circle n
  repeat 30
    move n
    turn-left 12
  end
endfn

move 50
call circle 3
move 75
call circle 5

repeat 36 // cant step this yet
  pen down
  call circle 5
  pen up
  move 10
  turn-right 10
end
