fn circle n
  repeat 120
    move 2
    turn-left 3
  end
endfn

// comments are ignored
pen down
move 10

call circle 10

repeat 36 // cant step this yet
  pen down
  call circle 2
  pen up
  move 10
  turn-right 10
end
